packages/sources/icons/src/vitamix/scales-fill.svg

<svg width="16" height="16" viewBox="0 0 16 16" fill="none" xmlns="http://www.w3.org/2000/svg">
<path fill-rule="evenodd" clip-rule="evenodd" d="M8.6667 1.33331V2.18531L12 3.29731L14.4214 2.49065L14.8434 3.75465L12.822 4.42865L14.886 10.1033C14.158 10.8613 13.1334 11.3333 12 11.3333C10.866 11.3333 9.84203 10.8613 9.11403 10.1033L11.1767 4.42865L8.6667 3.59131V12.6666H11.3334V14H4.6667V12.6666H7.33337V3.59131L4.82137 4.42865L6.88537 10.1033C6.15803 10.8613 5.13337 11.3333 4.00003 11.3333C2.86603 11.3333 1.84203 10.8613 1.11403 10.1033L3.1767 4.42865L1.1567 3.75531L1.5787 2.48998L4.00003 3.29665L7.33337 2.18531V1.33331H8.6667ZM12 6.06864L11.0547 8.66664H12.9447L12 6.06864ZM3.05466 8.66664L3.99999 6.06864L4.94466 8.66664H3.05466Z" fill="#001018"/>
</svg>

<svg width="16" height="16" fill="none" xmlns="http://www.w3.org/2000/svg"><path fill-rule="evenodd" clip-rule="evenodd" d="M8.667 1.333v.852L12 3.297l2.421-.806.422 1.264-2.021.674 2.064 5.674A3.99 3.99 0 0 1 12 11.333a3.99 3.99 0 0 1-2.886-1.23l2.063-5.674-2.51-.838v9.076h2.666V14H4.667v-1.333h2.666V3.59l-2.512.838 2.064 5.674A3.988 3.988 0 0 1 4 11.333a3.99 3.99 0 0 1-2.886-1.23L3.177 4.43l-2.02-.674.422-1.265L4 3.297l3.333-1.112v-.852h1.334zM12 6.07l-.945 2.598h1.89L12 6.069zM3.055 8.667 4 6.069l.945 2.598h-1.89z" fill="#001018"/></svg>
